!!!OTL: Bluemlein auf der Haide. / (Mel.: So weiss ich eins das mich erfrewt das pluemlein auff prenter hende.)
!!!ARE: Europa, Mitteleuropa, Deutschland
!!!SCT: A0635A
!!!TXL: @@DE
!!!YEM: Copyright 1995, estate of Helmut Schaffrath.
**kern	**text
*M3/1	*
*met(O.)	*
*met(3)	*
*clefC4	*
*k[b-]	*
*F:ion	*
!LO:TX:a:t=jon.	!
!LO:TX:a:t=P:1r, 1r in the source:problem	!
{1F	Frewt
=1	=1
0F	euch,
1C	frewt
=2	=2
0F	euch
1B-	in
=3	=3
1A	die-
0G	-ſer
=4	=4
0F}	ʒeit,
{1C	ihr
=5	=5
0F	wer-
1G	-den
=6	=6
0A	Chri-
1B-	-ſten
=7	=7
1A	al-
0G	.
=8	=8
1F	.
2E	.
2D	.
1E	.
=9	=9
0F}	-le!}
{1F	Denn
=10	=10
0F	yetʒt
1C	in
=11	=11
0F	al-
1B-	-len
=12	=12
1A	lan-
0G	-den
=13	=13
0F}	geit
{1C	Gotts
=14	=14
0F	wort
1G	her
=15	=15
0A	dringt
1B-	mit
=16	=16
1A	ſchal-
0G	.
=17	=17
1F	.
2E	.
2D	.
1E	.
=18	=18
0F}	-le.}
{1F	Es
=19	=19
0A	iſt
1A	kein
=20	=20
*lig	*
1.G	Man,
2A	.
*Xlig	*
1B-	ders
=21	=21
0c	weh-
1B-	-ren
=22	=22
0c}	kan,
{1A	das
=23	=23
0A	habt
1A	ihr
=24	=24
*lig	*
1.G	wol
2A/	.
*Xlig	*
1B-	ver-
=25	=25
1c	-nom-
1.d	.
2c	.
=26	=26
0c	.
1Bi	.
=27	=27
0c}	-men,
{1A	denn
=28	=28
0A	Got-
1A	-tes
=29	=29
0A	Wort
1G	bleibt
=30	=30
0F	e-
1E	-wig
=31	=31
0F}	beſtan,
{1C	den
=32	=32
0F	bö-
1G	-ſen
=33	=33
0A	als
1B-	den
=34	=34
1A	from-
0G	.
=35	=35
1F	.
2E	.
2D	.
1E	.
=36	=36
0F/ll}	-men.
==	==
!!!GTL: Geistliche Volkslieder
!!!AGN: Romanze, Ballade, Lied, religioeses Lied
!! Babsts Gsgb 1545 II No. 27.
!!!ONB: ESAC (Essen Associative Code) Database: ALTDEU
!!!AMT: simple triple
!!!AIN: vox
!!!EED: Helmut Schaffrath
!!!EEV: 1.0
!!!RDF**kern: i = editorial accidental
!!!RDF**kern: l = terminal long
!!!AMD: Ionian
!!!URL-scan: https://rosdok.uni-rostock.de/mcrviewer/recordIdentifier/rosdok_ppn738218359/iview2/phys_0816.iview2?x=109.4138659397604&y=1613.3389086159877&scale=0.7106933083589261&rotation=0&layout=singlePageLayout&logicalDiv=log_0007
!!!ENC: Anna Maria Matuszewska
!!!EEV: 2024/25/03
*-	*-
